img/checkbox.svg

<svg fill="none" height="14" viewBox="0 0 15 14" width="15" xmlns="http://www.w3.org/2000/svg"><path d="m13.2355 0h-10.88893c-.86333 0-1.555554.7-1.555554 1.55556v10.88884c0 .8556.692224 1.5556 1.555554 1.5556h10.88893c.8633 0 1.5555-.7 1.5555-1.5556v-10.88884c0-.85556-.6922-1.55556-1.5555-1.55556zm-7.00004 10.8889-3.88889-3.8889 1.09667-1.09667 2.79222 2.78445 5.90334-5.90334 1.0967 1.10445z" fill="#009fe2"/></svg>

<svg width="15" height="14" viewBox="0 0 15 14" fill="none" xmlns="http://www.w3.org/2000/svg">
<path d="M13.2355 0H2.34657C1.48324 0 0.791016 0.7 0.791016 1.55556V12.4444C0.791016 13.3 1.48324 14 2.34657 14H13.2355C14.0988 14 14.791 13.3 14.791 12.4444V1.55556C14.791 0.7 14.0988 0 13.2355 0ZM6.23546 10.8889L2.34657 7L3.44324 5.90333L6.23546 8.68778L12.1388 2.78444L13.2355 3.88889L6.23546 10.8889Z" fill="#009FE2"/>
</svg>
